dist/svg/check-in-fill-3.svg

<svg xmlns="http://www.w3.org/2000/svg" viewBox="0 0 24 24"><path d="M6.82 3.276a.73.73 0 0 0-.538.515c-.058.209-.056 3.218.003 3.428.059.213.293.441.513.5.4.108.812-.12.92-.51.056-.2.056-3.218 0-3.418a.8.8 0 0 0-.353-.448.95.95 0 0 0-.545-.067m4 0a.73.73 0 0 0-.538.515c-.058.209-.056 3.218.003 3.428.059.213.293.441.513.5.4.108.812-.12.92-.51.056-.2.056-3.218 0-3.418a.8.8 0 0 0-.353-.448.95.95 0 0 0-.545-.067m4 0a.73.73 0 0 0-.538.515c-.058.209-.056 3.218.003 3.428.059.213.293.441.513.5.4.108.812-.12.92-.51.056-.2.056-3.218 0-3.418a.8.8 0 0 0-.353-.448.95.95 0 0 0-.545-.067M3.7 8.816a.8.8 0 0 0-.402.443c-.059.155-.064.393-.046 2.327.016 1.675.033 2.225.08 2.474.289 1.549.881 2.684 1.953 3.747l.431.428-1.208.012c-1.035.011-1.225.023-1.328.079-.582.323-.56 1.081.04 1.358.154.071.454.074 8 .075 5.599 0 7.885-.012 7.999-.044a.84.84 0 0 0 .306-.191.739.739 0 0 0-.348-1.246c-.086-.02-.66-.037-1.275-.037l-1.118-.001.413-.41c.588-.583.991-1.13 1.326-1.799.07-.138.13-.255.134-.26a3 3 0 0 1 .3-.051 3.4 3.4 0 0 0 1.179-.408c.354-.209.855-.688 1.091-1.043.4-.601.533-1.17.533-2.276 0-1.038-.116-1.517-.497-2.05-.398-.558-1.041-.998-1.643-1.123-.399-.083-15.732-.087-15.92-.004m15.925 1.607c.193.11.379.312.505.548.083.155.091.232.104.929.015.827-.017 1.068-.183 1.397a1.97 1.97 0 0 1-.696.722l-.206.112.031-.115c.017-.064.039-.931.048-1.926l.017-1.81.108.025c.059.013.181.067.272.118"/></svg>

<svg fill="none" xmlns="http://www.w3.org/2000/svg" viewBox="0 0 24 24"><path d="M6.820 3.276 C 6.554 3.342,6.353 3.534,6.282 3.791 C 6.224 4.000,6.226 7.009,6.285 7.219 C 6.344 7.432,6.578 7.660,6.798 7.719 C 7.198 7.827,7.610 7.599,7.718 7.209 C 7.774 7.009,7.774 3.991,7.718 3.791 C 7.670 3.617,7.514 3.419,7.365 3.343 C 7.224 3.271,6.967 3.240,6.820 3.276 M10.820 3.276 C 10.554 3.342,10.353 3.534,10.282 3.791 C 10.224 4.000,10.226 7.009,10.285 7.219 C 10.344 7.432,10.578 7.660,10.798 7.719 C 11.198 7.827,11.610 7.599,11.718 7.209 C 11.774 7.009,11.774 3.991,11.718 3.791 C 11.670 3.617,11.514 3.419,11.365 3.343 C 11.224 3.271,10.967 3.240,10.820 3.276 M14.820 3.276 C 14.554 3.342,14.353 3.534,14.282 3.791 C 14.224 4.000,14.226 7.009,14.285 7.219 C 14.344 7.432,14.578 7.660,14.798 7.719 C 15.198 7.827,15.610 7.599,15.718 7.209 C 15.774 7.009,15.774 3.991,15.718 3.791 C 15.670 3.617,15.514 3.419,15.365 3.343 C 15.224 3.271,14.967 3.240,14.820 3.276 M3.700 8.816 C 3.527 8.892,3.374 9.061,3.298 9.259 C 3.239 9.414,3.234 9.652,3.252 11.586 C 3.268 13.261,3.285 13.811,3.332 14.060 C 3.621 15.609,4.213 16.744,5.285 17.807 L 5.716 18.235 4.508 18.247 C 3.473 18.258,3.283 18.270,3.180 18.326 C 2.598 18.649,2.620 19.407,3.220 19.684 C 3.374 19.755,3.674 19.758,11.220 19.759 C 16.819 19.759,19.105 19.747,19.219 19.715 C 19.307 19.691,19.444 19.605,19.525 19.524 C 19.938 19.111,19.742 18.409,19.177 18.278 C 19.091 18.258,18.517 18.241,17.902 18.241 L 16.784 18.240 17.197 17.830 C 17.785 17.247,18.188 16.700,18.523 16.031 C 18.593 15.893,18.653 15.776,18.657 15.771 C 18.661 15.766,18.796 15.743,18.957 15.720 C 19.354 15.664,19.804 15.508,20.136 15.312 C 20.490 15.103,20.991 14.624,21.227 14.269 C 21.627 13.668,21.760 13.099,21.760 11.993 C 21.760 10.955,21.644 10.476,21.263 9.943 C 20.865 9.385,20.222 8.945,19.620 8.820 C 19.221 8.737,3.888 8.733,3.700 8.816 M19.625 10.423 C 19.818 10.533,20.004 10.735,20.130 10.971 C 20.213 11.126,20.221 11.203,20.234 11.900 C 20.249 12.727,20.217 12.968,20.051 13.297 C 19.919 13.559,19.608 13.881,19.355 14.019 L 19.149 14.131 19.180 14.016 C 19.197 13.952,19.219 13.085,19.228 12.090 L 19.245 10.280 19.353 10.305 C 19.412 10.318,19.534 10.372,19.625 10.423 " stroke="none" fill-rule="evenodd"/></svg>
